neru-light-classic/32x32/apps/pyrenamer.svg

<?xml version="1.0" encoding="UTF-8" standalone="no"?>
<svg
   xmlns:dc="http://purl.org/dc/elements/1.1/"
   xmlns:cc="http://creativecommons.org/ns#"
   xmlns:rdf="http://www.w3.org/1999/02/22-rdf-syntax-ns#"
   xmlns:svg="http://www.w3.org/2000/svg"
   xmlns="http://www.w3.org/2000/svg"
   xmlns:sodipodi="http://sodipodi.sourceforge.net/DTD/sodipodi-0.dtd"
   xmlns:inkscape="http://www.inkscape.org/namespaces/inkscape"
   height="32"
   width="32"
   version="1"
   id="svg22"
   sodipodi:docname="pyrenamer.svg"
   inkscape:version="0.92.1 r">
  <metadata
     id="metadata28">
    <rdf:RDF>
      <cc:Work
         rdf:about="">
        <dc:format>image/svg+xml</dc:format>
        <dc:type
           rdf:resource="http://purl.org/dc/dcmitype/StillImage" />
      </cc:Work>
    </rdf:RDF>
  </metadata>
  <defs
     id="defs26" />
  <sodipodi:namedview
     pagecolor="#ffffff"
     bordercolor="#666666"
     borderopacity="1"
     objecttolerance="10"
     gridtolerance="10"
     guidetolerance="10"
     inkscape:pageopacity="0"
     inkscape:pageshadow="2"
     inkscape:window-width="640"
     inkscape:window-height="480"
     id="namedview24"
     showgrid="false"
     inkscape:zoom="9.5"
     inkscape:cx="-4.1052632"
     inkscape:cy="16"
     inkscape:current-layer="svg22" />
  <g
     id="g4566">
    <path
       id="path4544"
       d="m 22,22 v 7.5 c 0,0.235294 -0.152287,0.403753 -0.248047,0.601562 h 2.775391 c 3.088651,10e-7 5.574219,-2.485567 5.574218,-5.574218 V 21.751953 C 29.903753,21.847713 29.735294,22 29.5,22 Z"
       style="opacity:1;fill:#4f4f4f;fill-opacity:1;fill-rule:evenodd;stroke:none;stroke-width:1.03534329;stroke-linecap:round;stroke-linejoin:bevel;stroke-miterlimit:4;stroke-dasharray:none;stroke-dashoffset:0;stroke-opacity:1"
       inkscape:connector-curvature="0" />
    <path
       id="path4542"
       d="M 10,10 H 2.5 c -0.2352938,0 -0.4037532,0.152287 -0.6015625,0.248047 v 14.279297 c 0,3.088651 2.485568,5.574219 5.5742187,5.574218 H 21.751953 C 21.847713,29.903753 22,29.735294 22,29.5 V 22 H 11.5 C 11.0845,22 10.708625,21.833625 10.4375,21.5625 10.166375,21.291375 10,20.9155 10,20.5 Z"
       style="opacity:1;fill:#2297fd;fill-opacity:1;fill-rule:evenodd;stroke:none;stroke-width:1.03534329;stroke-linecap:round;stroke-linejoin:bevel;stroke-miterlimit:4;stroke-dasharray:none;stroke-dashoffset:0;stroke-opacity:1"
       inkscape:connector-curvature="0" />
    <path
       id="path4539"
       d="m 7.4726562,1.8984375 c -3.0886507,0 -5.5742187,2.485568 -5.5742187,5.5742187 V 10.248047 C 2.0962468,10.152287 2.2647062,10 2.5,10 H 10 V 2.5 c 0,-0.2352938 0.152287,-0.4037532 0.248047,-0.6015625 z"
       style="opacity:1;fill:#4f4f4f;fill-opacity:1;fill-rule:evenodd;stroke:none;stroke-width:1.03534329;stroke-linecap:round;stroke-linejoin:bevel;stroke-miterlimit:4;stroke-dasharray:none;stroke-dashoffset:0;stroke-opacity:1"
       inkscape:connector-curvature="0" />
    <path
       id="path6"
       d="M 13.312,24.814 H 8.6959 l -0.72845,2.1862 h -2.9674 l 4.2404,-12 h 3.5195 l 4.2404,12 h -2.9674 L 13.31219,24.814 Z M 9.4321,22.5876 h 3.1361 L 11.004,17.8131 Z"
       inkscape:connector-curvature="0"
       style="fill:#ffffff" />
    <path
       id="rect4497-3"
       d="M 10.248047,1.8984375 C 10.152287,2.0962468 10,2.2647062 10,2.5 v 18 c 0,0.4155 0.166375,0.791375 0.4375,1.0625 C 10.708625,21.833625 11.0845,22 11.5,22 h 18 c 0.235294,0 0.403753,-0.152287 0.601562,-0.248047 V 7.4726562 c 10e-7,-3.0886508 -2.485567,-5.5742187 -5.574218,-5.5742187 z"
       style="opacity:1;fill:#f3af3f;fill-opacity:1;fill-rule:evenodd;stroke:none;stroke-width:1.03534329;stroke-linecap:round;stroke-linejoin:bevel;stroke-miterlimit:4;stroke-dasharray:none;stroke-dashoffset:0;stroke-opacity:1"
       inkscape:connector-curvature="0" />
    <path
       id="path14"
       d="m 20.866,10.646 q 0.74042,0 1.1229,-0.3215 0.38243,-0.3215 0.38243,-0.94843 0,-0.61888 -0.38243,-0.94041 Q 21.60647,8.10612 20.866,8.10612 h -1.7331 v 2.5399 h 1.7331 z m 0.10578,5.2485 q 0.94385,0 1.4158,-0.39384 0.48005,-0.39384 0.48005,-1.1895 0,-0.77962 -0.47192,-1.1654 -0.47192,-0.39391 -1.4239,-0.39391 h -1.8389 v 3.1427 h 1.8389 z m 2.9129,-4.316 q 1.009,0.28935 1.5622,1.069 0.55329,0.77962 0.55329,1.9129 0,1.7361 -1.188,2.5881 -1.188,0.85197 -3.6127,0.85197 h -5.1992 v -12 h 4.703 q 2.5305,0 3.6615,0.75551 1.1392,0.75551 1.1392,2.4193 0,0.87608 -0.41497,1.495 -0.41497,0.61086 -1.2042,0.90822 z"
       inkscape:connector-curvature="0"
       style="fill:#ffffff" />
  </g>
</svg>

<svg xmlns="http://www.w3.org/2000/svg" height="32" width="32" version="1"><path d="M22 22v7.5c0 .235-.152.404-.248.602h2.775a5.561 5.561 0 0 0 5.575-5.575v-2.775c-.198.096-.367.248-.602.248z" fill="#4f4f4f" fill-rule="evenodd"/><path d="M10 10H2.5c-.235 0-.404.152-.602.248v14.28a5.561 5.561 0 0 0 5.575 5.574h14.279c.096-.198.248-.367.248-.602V22H11.5a1.497 1.497 0 0 1-1.5-1.5z" fill="#2297fd" fill-rule="evenodd"/><path d="M7.473 1.898a5.561 5.561 0 0 0-5.575 5.575v2.775c.198-.096.367-.248.602-.248H10V2.5c0-.235.152-.404.248-.602z" fill="#4f4f4f" fill-rule="evenodd"/><path d="M13.312 24.814H8.696L7.967 27H5l4.24-12h3.52L17 27h-2.967l-.72-2.186zm-3.88-2.226h3.136l-1.564-4.775z" fill="#fff"/><path d="M10.248 1.898c-.096.198-.248.367-.248.602v18a1.497 1.497 0 0 0 1.5 1.5h18c.235 0 .404-.152.602-.248V7.472a5.561 5.561 0 0 0-5.575-5.574z" fill="#f3af3f" fill-rule="evenodd"/><path d="M20.866 10.646q.74 0 1.123-.322.382-.321.382-.948 0-.619-.382-.94-.383-.33-1.123-.33h-1.733v2.54h1.733zm.106 5.248q.944 0 1.416-.393.48-.394.48-1.19 0-.78-.472-1.165-.472-.394-1.424-.394h-1.84v3.143h1.84zm2.913-4.315q1.009.289 1.562 1.069.553.78.553 1.912 0 1.737-1.188 2.589Q23.624 18 21.2 18H16V6h4.703q2.53 0 3.662.756 1.139.755 1.139 2.42 0 .875-.415 1.494-.415.611-1.204.909z" fill="#fff"/></svg>
